X:132
U: ~ = !turn!
%%topmargin 3cm
T:Morning Dew
B:Traditional Irish Fiddle Tunes. Randy Miller and Jack Perron.
Z:Transcribed by Ralph Palmer
R:Reel
M:C|
L:1/8
K:D
~E3 A {Bc}BAFD | EBEB AGFD | ~E3 A {Bc}BAFA | Bc ((3dcB) ADFD |
~E3 A {Bc}BAFD | EBEB AGFD | ~E3 A {Bc}BAFA | Bc ((3dcB) ADFA ||
(3{Bc}(BAB) eB fBeB | (3{Bc}(BAB) dB ADFA | (3{Bc}(BAB) eB fBeB | {de}dcdB ADFA |
(3{Bc}(BAB) eB fBeB | (3{Bc}(BAB) dB ADFA | ((3B^cd) eg ((3fgf) ec | {de}dcdB ADFA ||
{Bc}B2 GB EBGB | {Bc}B2 GB ADFA | {Bc}B2 GB GBEB |{Bc}BABd ADFA |
{Bc}BAGF EFGA | {Bc}B2 GB ADFA | {Bc}BAGF EFGA | BcdB ADFD ||!
xxxx |~E3 |"or" x | (3{EF}(EDE)| xxxxxxxx [|] xxxxxxxx [|]
